X: 18115
T: Humours Of Bath, The
R: jig
M: 6/8
K: Gmajor
|:B/A/|G2g fed|efg dcB|ecA dBG|FGA A2B/A/|
G2g fed|efg dcB|ecA dBG|AGF G2:|
|:F/G/|A3/2B/A ABc|def gdB|cdc BcB|
GBG Fed|G2g fed|efg dcB|ecA dBG|AGF G2:|

